X: 1
T: Tarry a While
R: jig
B: RSCDS __-20
Z: 1997 by John Chambers <jc:trillian.mit.edu>
M: 6/8
L: 1/8
K: Bb
|: F \
| "Bb"B>cB F2D | F2F F2d | "Eb"e>fe "Bb/d"dcB | "C7"d3 "F7"c2F \
| "Bb"B>cB F2D | "(F7)"F2F Fde | "Bb"fdB "F7"c2d | "Bb"B3- B2 :|
|: e \
| "Bb"d2f fed | "Eb"e2g "F7"cde | "Bb"d>cB "Gm"BAB | "C7"d>cA "F7"F2e \
| "Bb"d2f fed | "Eb"efg "F7"cde | "Bb"dcB BAB | "(C7)"d3 "F7"c2 :|
